images/6605100.svg

<?xml version="1.0" encoding="UTF-8"?>
<svg xmlns="http://www.w3.org/2000/svg" xmlns:xlink="http://www.w3.org/1999/xlink" width="300pt" height="300pt" viewBox="0 0 300 300" version="1.1">
<defs>
<g>
<symbol overflow="visible" id="glyph0-0">
<path style="stroke:none;" d="M 0.453125 1.59375 L 0.453125 -6.34375 L 4.953125 -6.34375 L 4.953125 1.59375 Z M 0.953125 1.09375 L 4.453125 1.09375 L 4.453125 -5.84375 L 0.953125 -5.84375 Z M 0.953125 1.09375 "/>
</symbol>
<symbol overflow="visible" id="glyph0-1">
<path style="stroke:none;" d="M 0.890625 -6.5625 L 2.078125 -6.5625 L 4.984375 -1.078125 L 4.984375 -6.5625 L 5.84375 -6.5625 L 5.84375 0 L 4.65625 0 L 1.75 -5.484375 L 1.75 0 L 0.890625 0 Z M 0.890625 -6.5625 "/>
</symbol>
<symbol overflow="visible" id="glyph0-2">
<path style="stroke:none;" d="M 3.546875 -5.953125 C 2.898438 -5.953125 2.382812 -5.710938 2 -5.234375 C 1.625 -4.753906 1.4375 -4.101562 1.4375 -3.28125 C 1.4375 -2.445312 1.625 -1.789062 2 -1.3125 C 2.382812 -0.832031 2.898438 -0.59375 3.546875 -0.59375 C 4.191406 -0.59375 4.703125 -0.832031 5.078125 -1.3125 C 5.453125 -1.789062 5.640625 -2.445312 5.640625 -3.28125 C 5.640625 -4.101562 5.453125 -4.753906 5.078125 -5.234375 C 4.703125 -5.710938 4.191406 -5.953125 3.546875 -5.953125 Z M 3.546875 -6.6875 C 4.460938 -6.6875 5.195312 -6.375 5.75 -5.75 C 6.300781 -5.132812 6.578125 -4.3125 6.578125 -3.28125 C 6.578125 -2.238281 6.300781 -1.410156 5.75 -0.796875 C 5.195312 -0.179688 4.460938 0.125 3.546875 0.125 C 2.617188 0.125 1.878906 -0.179688 1.328125 -0.796875 C 0.773438 -1.410156 0.5 -2.238281 0.5 -3.28125 C 0.5 -4.3125 0.773438 -5.132812 1.328125 -5.75 C 1.878906 -6.375 2.617188 -6.6875 3.546875 -6.6875 Z M 3.546875 -6.6875 "/>
</symbol>
</g>
</defs>
<g id="surface48777">
<rect x="0" y="0" width="300" height="300" style="fill:rgb(100%,100%,100%);fill-opacity:1;stroke:none;"/>
<path style="fill:none;stroke-width:1.2;stroke-linecap:butt;stroke-linejoin:miter;stroke:rgb(0%,0%,0%);stroke-opacity:1;stroke-miterlimit:10;" d="M 264.75 147.769531 L 245.515625 140.191406 "/>
<path style="fill:none;stroke-width:1.2;stroke-linecap:butt;stroke-linejoin:miter;stroke:rgb(0%,0%,0%);stroke-opacity:1;stroke-miterlimit:10;" d="M 245.515625 140.191406 L 237.425781 146.628906 "/>
<path style="fill:none;stroke-width:1.2;stroke-linecap:butt;stroke-linejoin:miter;stroke:rgb(0%,0%,100%);stroke-opacity:1;stroke-miterlimit:10;" d="M 237.425781 146.628906 L 229.335938 153.0625 "/>
<path style="fill:none;stroke-width:1.2;stroke-linecap:butt;stroke-linejoin:miter;stroke:rgb(0%,0%,100%);stroke-opacity:1;stroke-miterlimit:10;" d="M 229.335938 153.0625 L 230.863281 163.285156 "/>
<path style="fill:none;stroke-width:1.2;stroke-linecap:butt;stroke-linejoin:miter;stroke:rgb(0%,0%,0%);stroke-opacity:1;stroke-miterlimit:10;" d="M 230.863281 163.285156 L 232.394531 173.507812 "/>
<path style="fill:none;stroke-width:1.2;stroke-linecap:butt;stroke-linejoin:miter;stroke:rgb(0%,0%,100%);stroke-opacity:1;stroke-miterlimit:10;" d="M 229.335938 153.0625 L 219.71875 149.273438 "/>
<path style="fill:none;stroke-width:1.2;stroke-linecap:butt;stroke-linejoin:miter;stroke:rgb(0%,0%,0%);stroke-opacity:1;stroke-miterlimit:10;" d="M 219.71875 149.273438 L 210.101562 145.488281 "/>
<path style=" stroke:none;fill-rule:nonzero;fill:rgb(100%,100%,100%);fill-opacity:1;" d="M 226.335938 147.5625 L 233.335938 147.5625 L 233.335938 158.5625 L 226.335938 158.5625 Z M 226.335938 147.5625 "/>
<g style="fill:rgb(0%,0%,100%);fill-opacity:1;">
  <use xlink:href="#glyph0-1" x="226.335938" y="156.225586"/>
</g>
<path style="fill:none;stroke-width:1.2;stroke-linecap:butt;stroke-linejoin:miter;stroke:rgb(0%,0%,0%);stroke-opacity:1;stroke-miterlimit:10;" d="M 232.394531 173.507812 L 251.628906 181.085938 "/>
<path style="fill:none;stroke-width:1.2;stroke-linecap:butt;stroke-linejoin:miter;stroke:rgb(0%,0%,0%);stroke-opacity:1;stroke-miterlimit:10;" d="M 210.101562 145.488281 L 193.921875 158.359375 "/>
<path style="fill:none;stroke-width:1.2;stroke-linecap:butt;stroke-linejoin:miter;stroke:rgb(0%,0%,0%);stroke-opacity:1;stroke-miterlimit:10;" d="M 193.921875 158.359375 L 174.6875 150.78125 "/>
<path style="fill:none;stroke-width:1.2;stroke-linecap:butt;stroke-linejoin:miter;stroke:rgb(0%,0%,0%);stroke-opacity:1;stroke-miterlimit:10;" d="M 174.6875 150.78125 L 158.507812 163.652344 "/>
<path style="fill:none;stroke-width:1.2;stroke-linecap:butt;stroke-linejoin:miter;stroke:rgb(0%,0%,0%);stroke-opacity:1;stroke-miterlimit:10;" d="M 158.507812 163.652344 L 161.566406 184.097656 "/>
<path style="fill:none;stroke-width:1.2;stroke-linecap:butt;stroke-linejoin:miter;stroke:rgb(0%,0%,0%);stroke-opacity:1;stroke-miterlimit:10;" d="M 158.507812 163.652344 L 148.890625 159.863281 "/>
<path style="fill:none;stroke-width:1.2;stroke-linecap:butt;stroke-linejoin:miter;stroke:rgb(0%,0%,100%);stroke-opacity:1;stroke-miterlimit:10;" d="M 148.890625 159.863281 L 139.273438 156.078125 "/>
<path style="fill:none;stroke-width:1.2;stroke-linecap:butt;stroke-linejoin:miter;stroke:rgb(0%,0%,100%);stroke-opacity:1;stroke-miterlimit:10;" d="M 139.273438 156.078125 L 130.554688 161.632812 "/>
<path style="fill:none;stroke-width:1.2;stroke-linecap:butt;stroke-linejoin:miter;stroke:rgb(0%,0%,0%);stroke-opacity:1;stroke-miterlimit:10;" d="M 130.554688 161.632812 L 121.835938 167.1875 "/>
<path style="fill:none;stroke-width:1.2;stroke-linecap:butt;stroke-linejoin:miter;stroke:rgb(0%,0%,0%);stroke-opacity:1;stroke-miterlimit:10;" d="M 134.09375 136.0625 L 136.683594 146.070312 "/>
<path style="fill:none;stroke-width:1.2;stroke-linecap:butt;stroke-linejoin:miter;stroke:rgb(0%,0%,100%);stroke-opacity:1;stroke-miterlimit:10;" d="M 136.683594 146.070312 L 139.273438 156.078125 "/>
<path style=" stroke:none;fill-rule:nonzero;fill:rgb(100%,100%,100%);fill-opacity:1;" d="M 136.273438 150.578125 L 143.273438 150.578125 L 143.273438 161.578125 L 136.273438 161.578125 Z M 136.273438 150.578125 "/>
<g style="fill:rgb(0%,0%,100%);fill-opacity:1;">
  <use xlink:href="#glyph0-1" x="136.273438" y="159.241211"/>
</g>
<path style="fill:none;stroke-width:1.2;stroke-linecap:butt;stroke-linejoin:miter;stroke:rgb(0%,0%,0%);stroke-opacity:1;stroke-miterlimit:10;" d="M 121.835938 167.1875 L 105.882812 154.035156 "/>
<path style="fill:none;stroke-width:1.2;stroke-linecap:butt;stroke-linejoin:miter;stroke:rgb(0%,0%,0%);stroke-opacity:1;stroke-miterlimit:10;" d="M 117.148438 169.625 L 104.386719 159.105469 "/>
<path style="fill:none;stroke-width:1.2;stroke-linecap:butt;stroke-linejoin:miter;stroke:rgb(0%,0%,100%);stroke-opacity:1;stroke-miterlimit:10;" d="M 118.425781 187.578125 L 120.132812 177.382812 "/>
<path style="fill:none;stroke-width:1.2;stroke-linecap:butt;stroke-linejoin:miter;stroke:rgb(0%,0%,0%);stroke-opacity:1;stroke-miterlimit:10;" d="M 120.132812 177.382812 L 121.835938 167.1875 "/>
<path style="fill:none;stroke-width:1.2;stroke-linecap:butt;stroke-linejoin:miter;stroke:rgb(0%,0%,0%);stroke-opacity:1;stroke-miterlimit:10;" d="M 105.882812 154.035156 L 86.519531 161.277344 "/>
<path style="fill:none;stroke-width:1.2;stroke-linecap:butt;stroke-linejoin:miter;stroke:rgb(0%,0%,0%);stroke-opacity:1;stroke-miterlimit:10;" d="M 105.882812 154.035156 L 109.671875 144.417969 "/>
<path style="fill:none;stroke-width:1.2;stroke-linecap:butt;stroke-linejoin:miter;stroke:rgb(0%,0%,100%);stroke-opacity:1;stroke-miterlimit:10;" d="M 109.671875 144.417969 L 113.460938 134.800781 "/>
<path style="fill:none;stroke-width:1.2;stroke-linecap:butt;stroke-linejoin:miter;stroke:rgb(0%,0%,0%);stroke-opacity:1;stroke-miterlimit:10;" d="M 86.519531 161.277344 L 84.816406 171.472656 "/>
<path style="fill:none;stroke-width:1.2;stroke-linecap:butt;stroke-linejoin:miter;stroke:rgb(0%,0%,100%);stroke-opacity:1;stroke-miterlimit:10;" d="M 84.816406 171.472656 L 83.109375 181.667969 "/>
<path style="fill:none;stroke-width:1.2;stroke-linecap:butt;stroke-linejoin:miter;stroke:rgb(0%,0%,0%);stroke-opacity:1;stroke-miterlimit:10;" d="M 90.976562 164.121094 L 89.613281 172.277344 "/>
<path style="fill:none;stroke-width:1.2;stroke-linecap:butt;stroke-linejoin:miter;stroke:rgb(0%,0%,100%);stroke-opacity:1;stroke-miterlimit:10;" d="M 89.613281 172.277344 L 88.246094 180.433594 "/>
<path style="fill:none;stroke-width:1.2;stroke-linecap:butt;stroke-linejoin:miter;stroke:rgb(0%,0%,0%);stroke-opacity:1;stroke-miterlimit:10;" d="M 86.519531 161.277344 L 78.542969 154.703125 "/>
<path style="fill:none;stroke-width:1.2;stroke-linecap:butt;stroke-linejoin:miter;stroke:rgb(0%,0%,100%);stroke-opacity:1;stroke-miterlimit:10;" d="M 78.542969 154.703125 L 70.566406 148.128906 "/>
<path style="fill:none;stroke-width:1.2;stroke-linecap:butt;stroke-linejoin:miter;stroke:rgb(0%,0%,100%);stroke-opacity:1;stroke-miterlimit:10;" d="M 83.109375 181.667969 L 91.085938 188.242188 "/>
<path style="fill:none;stroke-width:1.2;stroke-linecap:butt;stroke-linejoin:miter;stroke:rgb(0%,0%,0%);stroke-opacity:1;stroke-miterlimit:10;" d="M 91.085938 188.242188 L 99.0625 194.816406 "/>
<path style=" stroke:none;fill-rule:nonzero;fill:rgb(100%,100%,100%);fill-opacity:1;" d="M 80.109375 176.167969 L 87.109375 176.167969 L 87.109375 187.167969 L 80.109375 187.167969 Z M 80.109375 176.167969 "/>
<g style="fill:rgb(0%,0%,100%);fill-opacity:1;">
  <use xlink:href="#glyph0-1" x="80.109375" y="184.831055"/>
</g>
<path style="fill:none;stroke-width:1.2;stroke-linecap:butt;stroke-linejoin:miter;stroke:rgb(0%,0%,0%);stroke-opacity:1;stroke-miterlimit:10;" d="M 99.0625 194.816406 L 108.742188 191.195312 "/>
<path style="fill:none;stroke-width:1.2;stroke-linecap:butt;stroke-linejoin:miter;stroke:rgb(0%,0%,100%);stroke-opacity:1;stroke-miterlimit:10;" d="M 108.742188 191.195312 L 118.425781 187.578125 "/>
<path style="fill:none;stroke-width:1.2;stroke-linecap:butt;stroke-linejoin:miter;stroke:rgb(0%,0%,0%);stroke-opacity:1;stroke-miterlimit:10;" d="M 99.292969 189.539062 L 107.039062 186.640625 "/>
<path style="fill:none;stroke-width:1.2;stroke-linecap:butt;stroke-linejoin:miter;stroke:rgb(0%,0%,100%);stroke-opacity:1;stroke-miterlimit:10;" d="M 107.039062 186.640625 L 114.785156 183.746094 "/>
<path style="fill:none;stroke-width:1.2;stroke-linecap:butt;stroke-linejoin:miter;stroke:rgb(0%,0%,0%);stroke-opacity:1;stroke-miterlimit:10;" d="M 99.0625 194.816406 L 95.652344 215.207031 "/>
<path style=" stroke:none;fill-rule:nonzero;fill:rgb(100%,100%,100%);fill-opacity:1;" d="M 115.425781 182.078125 L 122.425781 182.078125 L 122.425781 193.078125 L 115.425781 193.078125 Z M 115.425781 182.078125 "/>
<g style="fill:rgb(0%,0%,100%);fill-opacity:1;">
  <use xlink:href="#glyph0-1" x="115.425781" y="190.741211"/>
</g>
<path style="fill:none;stroke-width:1.2;stroke-linecap:butt;stroke-linejoin:miter;stroke:rgb(0%,0%,100%);stroke-opacity:1;stroke-miterlimit:10;" d="M 70.566406 148.128906 L 72.273438 137.933594 "/>
<path style="fill:none;stroke-width:1.2;stroke-linecap:butt;stroke-linejoin:miter;stroke:rgb(0%,0%,0%);stroke-opacity:1;stroke-miterlimit:10;" d="M 72.273438 137.933594 L 73.976562 127.738281 "/>
<path style="fill:none;stroke-width:1.2;stroke-linecap:butt;stroke-linejoin:miter;stroke:rgb(0%,0%,0%);stroke-opacity:1;stroke-miterlimit:10;" d="M 51.203125 155.371094 L 60.886719 151.75 "/>
<path style="fill:none;stroke-width:1.2;stroke-linecap:butt;stroke-linejoin:miter;stroke:rgb(0%,0%,100%);stroke-opacity:1;stroke-miterlimit:10;" d="M 60.886719 151.75 L 70.566406 148.128906 "/>
<path style=" stroke:none;fill-rule:nonzero;fill:rgb(100%,100%,100%);fill-opacity:1;" d="M 67.566406 142.628906 L 74.566406 142.628906 L 74.566406 153.628906 L 67.566406 153.628906 Z M 67.566406 142.628906 "/>
<g style="fill:rgb(0%,0%,100%);fill-opacity:1;">
  <use xlink:href="#glyph0-1" x="67.566406" y="151.291992"/>
</g>
<path style="fill:none;stroke-width:1.2;stroke-linecap:butt;stroke-linejoin:miter;stroke:rgb(0%,0%,0%);stroke-opacity:1;stroke-miterlimit:10;" d="M 73.976562 127.738281 L 58.023438 114.589844 "/>
<path style="fill:none;stroke-width:1.2;stroke-linecap:butt;stroke-linejoin:miter;stroke:rgb(0%,0%,0%);stroke-opacity:1;stroke-miterlimit:10;" d="M 58.023438 114.589844 L 48.34375 118.210938 "/>
<path style="fill:none;stroke-width:1.2;stroke-linecap:butt;stroke-linejoin:miter;stroke:rgb(100%,0%,0%);stroke-opacity:1;stroke-miterlimit:10;" d="M 48.34375 118.210938 L 38.660156 121.832031 "/>
<path style="fill:none;stroke-width:1.2;stroke-linecap:butt;stroke-linejoin:miter;stroke:rgb(100%,0%,0%);stroke-opacity:1;stroke-miterlimit:10;" d="M 38.660156 121.832031 L 36.957031 132.027344 "/>
<path style="fill:none;stroke-width:1.2;stroke-linecap:butt;stroke-linejoin:miter;stroke:rgb(0%,0%,0%);stroke-opacity:1;stroke-miterlimit:10;" d="M 36.957031 132.027344 L 35.25 142.222656 "/>
<path style=" stroke:none;fill-rule:nonzero;fill:rgb(100%,100%,100%);fill-opacity:1;" d="M 34.660156 116.332031 L 42.660156 116.332031 L 42.660156 127.332031 L 34.660156 127.332031 Z M 34.660156 116.332031 "/>
<g style="fill:rgb(100%,0%,0%);fill-opacity:1;">
  <use xlink:href="#glyph0-2" x="34.660156" y="124.995117"/>
</g>
<path style="fill:none;stroke-width:1.2;stroke-linecap:butt;stroke-linejoin:miter;stroke:rgb(0%,0%,0%);stroke-opacity:1;stroke-miterlimit:10;" d="M 35.25 142.222656 L 51.203125 155.371094 "/>
<path style="fill:none;stroke-width:1.2;stroke-linecap:butt;stroke-linejoin:miter;stroke:rgb(0%,0%,100%);stroke-opacity:1;stroke-miterlimit:10;" d="M 113.460938 134.800781 L 123.777344 135.433594 "/>
<path style="fill:none;stroke-width:1.2;stroke-linecap:butt;stroke-linejoin:miter;stroke:rgb(0%,0%,0%);stroke-opacity:1;stroke-miterlimit:10;" d="M 123.777344 135.433594 L 134.09375 136.0625 "/>
<path style="fill:none;stroke-width:1.2;stroke-linecap:butt;stroke-linejoin:miter;stroke:rgb(0%,0%,100%);stroke-opacity:1;stroke-miterlimit:10;" d="M 115.226562 139.78125 L 123.480469 140.289062 "/>
<path style="fill:none;stroke-width:1.2;stroke-linecap:butt;stroke-linejoin:miter;stroke:rgb(0%,0%,0%);stroke-opacity:1;stroke-miterlimit:10;" d="M 123.480469 140.289062 L 131.734375 140.792969 "/>
<path style=" stroke:none;fill-rule:nonzero;fill:rgb(100%,100%,100%);fill-opacity:1;" d="M 110.460938 129.300781 L 117.460938 129.300781 L 117.460938 140.300781 L 110.460938 140.300781 Z M 110.460938 129.300781 "/>
<g style="fill:rgb(0%,0%,100%);fill-opacity:1;">
  <use xlink:href="#glyph0-1" x="110.460938" y="137.963867"/>
</g>
<path style="fill:none;stroke-width:1.2;stroke-linecap:butt;stroke-linejoin:miter;stroke:rgb(0%,0%,0%);stroke-opacity:1;stroke-miterlimit:10;" d="M 134.09375 136.0625 L 147.242188 120.109375 "/>
<path style="fill:none;stroke-width:1.2;stroke-linecap:butt;stroke-linejoin:miter;stroke:rgb(0%,0%,0%);stroke-opacity:1;stroke-miterlimit:10;" d="M 147.242188 120.109375 L 167.632812 123.519531 "/>
<path style="fill:none;stroke-width:1.2;stroke-linecap:butt;stroke-linejoin:miter;stroke:rgb(0%,0%,0%);stroke-opacity:1;stroke-miterlimit:10;" d="M 150.085938 115.652344 L 166.398438 118.382812 "/>
<path style="fill:none;stroke-width:1.2;stroke-linecap:butt;stroke-linejoin:miter;stroke:rgb(0%,0%,0%);stroke-opacity:1;stroke-miterlimit:10;" d="M 140.003906 100.746094 L 147.242188 120.109375 "/>
<path style="fill:none;stroke-width:1.2;stroke-linecap:butt;stroke-linejoin:miter;stroke:rgb(0%,0%,0%);stroke-opacity:1;stroke-miterlimit:10;" d="M 167.632812 123.519531 L 180.785156 107.566406 "/>
<path style="fill:none;stroke-width:1.2;stroke-linecap:butt;stroke-linejoin:miter;stroke:rgb(0%,0%,0%);stroke-opacity:1;stroke-miterlimit:10;" d="M 180.785156 107.566406 L 173.542969 88.203125 "/>
<path style="fill:none;stroke-width:1.2;stroke-linecap:butt;stroke-linejoin:miter;stroke:rgb(0%,0%,0%);stroke-opacity:1;stroke-miterlimit:10;" d="M 175.503906 107.335938 L 169.710938 91.84375 "/>
<path style="fill:none;stroke-width:1.2;stroke-linecap:butt;stroke-linejoin:miter;stroke:rgb(0%,0%,0%);stroke-opacity:1;stroke-miterlimit:10;" d="M 173.542969 88.203125 L 153.152344 84.792969 "/>
<path style="fill:none;stroke-width:1.2;stroke-linecap:butt;stroke-linejoin:miter;stroke:rgb(0%,0%,0%);stroke-opacity:1;stroke-miterlimit:10;" d="M 153.152344 84.792969 L 140.003906 100.746094 "/>
<path style="fill:none;stroke-width:1.2;stroke-linecap:butt;stroke-linejoin:miter;stroke:rgb(0%,0%,0%);stroke-opacity:1;stroke-miterlimit:10;" d="M 155.589844 89.480469 L 145.070312 102.242188 "/>
</g>
</svg>

<svg xmlns="http://www.w3.org/2000/svg" xmlns:xlink="http://www.w3.org/1999/xlink" width="300pt" height="300pt" viewBox="0 0 300 300"><defs><symbol overflow="visible"><path d="M.453 1.594v-7.938h4.5v7.938zm.5-.5h3.5v-6.938h-3.5zm0 0"/></symbol><symbol overflow="visible" id="a"><path d="M.89-6.563H2.08l2.906 5.485v-5.484h.86V0H4.656L1.75-5.484V0H.89zm0 0"/></symbol><symbol overflow="visible" id="b"><path d="M3.547-5.953c-.65 0-1.164.242-1.547.72-.375.48-.563 1.13-.563 1.952 0 .835.188 1.49.563 1.967.383.48.898.72 1.547.72.644 0 1.156-.24 1.53-.72.376-.476.564-1.132.564-1.968 0-.822-.187-1.474-.562-1.954-.375-.477-.887-.72-1.53-.72zm0-.734c.914 0 1.648.312 2.203.937.55.617.828 1.438.828 2.47 0 1.042-.277 1.87-.828 2.483-.555.617-1.29.922-2.203.922-.93 0-1.668-.305-2.22-.922C.774-1.41.5-2.237.5-3.28c0-1.033.273-1.853.828-2.47.55-.625 1.29-.938 2.22-.938zm0 0"/></symbol></defs><g><path fill="#fff" d="M0 0h300v300H0z"/><path d="M264.75 147.77l-19.234-7.58M245.516 140.19l-8.09 6.44" stroke-width="1.2" stroke="#000" stroke-miterlimit="10" fill="none"/><path d="M237.426 146.63l-8.09 6.433M229.336 153.063l1.527 10.222" stroke-width="1.2" stroke="#00f" stroke-miterlimit="10" fill="none"/><path d="M230.863 163.285l1.532 10.223" stroke-width="1.2" stroke="#000" stroke-miterlimit="10" fill="none"/><path d="M229.336 153.063l-9.617-3.79" stroke-width="1.2" stroke="#00f" stroke-miterlimit="10" fill="none"/><path d="M219.72 149.273l-9.618-3.785" stroke-width="1.2" stroke="#000" stroke-miterlimit="10" fill="none"/><path d="M226.336 147.563h7v11h-7zm0 0" fill="#fff"/><use xlink:href="#a" x="226.336" y="156.226" fill="#00f"/><path d="M232.395 173.508l19.234 7.578M210.102 145.488l-16.18 12.87M193.922 158.36l-19.234-7.58M174.688 150.78l-16.18 12.872M158.508 163.652l3.058 20.446M158.508 163.652l-9.617-3.79" stroke-width="1.2" stroke="#000" stroke-miterlimit="10" fill="none"/><path d="M148.89 159.863l-9.617-3.785M139.273 156.078l-8.718 5.555" stroke-width="1.2" stroke="#00f" stroke-miterlimit="10" fill="none"/><path d="M130.555 161.633l-8.72 5.554M134.094 136.063l2.59 10.007" stroke-width="1.2" stroke="#000" stroke-miterlimit="10" fill="none"/><path d="M136.684 146.07l2.59 10.008" stroke-width="1.2" stroke="#00f" stroke-miterlimit="10" fill="none"/><path d="M136.273 150.578h7v11h-7zm0 0" fill="#fff"/><use xlink:href="#a" x="136.273" y="159.241" fill="#00f"/><path d="M121.836 167.188l-15.953-13.153M117.148 169.625l-12.76-10.52" stroke-width="1.2" stroke="#000" stroke-miterlimit="10" fill="none"/><path d="M118.426 187.578l1.707-10.195" stroke-width="1.2" stroke="#00f" stroke-miterlimit="10" fill="none"/><path d="M120.133 177.383l1.703-10.196M105.883 154.035l-19.363 7.242M105.883 154.035l3.79-9.617" stroke-width="1.2" stroke="#000" stroke-miterlimit="10" fill="none"/><path d="M109.672 144.418l3.79-9.617" stroke-width="1.2" stroke="#00f" stroke-miterlimit="10" fill="none"/><path d="M86.52 161.277l-1.704 10.196" stroke-width="1.2" stroke="#000" stroke-miterlimit="10" fill="none"/><path d="M84.816 171.473l-1.707 10.195" stroke-width="1.2" stroke="#00f" stroke-miterlimit="10" fill="none"/><path d="M90.977 164.12l-1.364 8.157" stroke-width="1.2" stroke="#000" stroke-miterlimit="10" fill="none"/><path d="M89.613 172.277l-1.367 8.157" stroke-width="1.2" stroke="#00f" stroke-miterlimit="10" fill="none"/><path d="M86.52 161.277l-7.977-6.574" stroke-width="1.2" stroke="#000" stroke-miterlimit="10" fill="none"/><path d="M78.543 154.703l-7.977-6.574M83.11 181.668l7.976 6.574" stroke-width="1.2" stroke="#00f" stroke-miterlimit="10" fill="none"/><path d="M91.086 188.242l7.977 6.574" stroke-width="1.2" stroke="#000" stroke-miterlimit="10" fill="none"/><path d="M80.11 176.168h7v11h-7zm0 0" fill="#fff"/><use xlink:href="#a" x="80.109" y="184.831" fill="#00f"/><path d="M99.063 194.816l9.68-3.62" stroke-width="1.2" stroke="#000" stroke-miterlimit="10" fill="none"/><path d="M108.742 191.195l9.684-3.617" stroke-width="1.2" stroke="#00f" stroke-miterlimit="10" fill="none"/><path d="M99.293 189.54l7.746-2.9" stroke-width="1.2" stroke="#000" stroke-miterlimit="10" fill="none"/><path d="M107.04 186.64l7.745-2.894" stroke-width="1.2" stroke="#00f" stroke-miterlimit="10" fill="none"/><path d="M99.063 194.816l-3.41 20.39" stroke-width="1.2" stroke="#000" stroke-miterlimit="10" fill="none"/><path d="M115.426 182.078h7v11h-7zm0 0" fill="#fff"/><use xlink:href="#a" x="115.426" y="190.741" fill="#00f"/><path d="M70.566 148.13l1.707-10.196" stroke-width="1.2" stroke="#00f" stroke-miterlimit="10" fill="none"/><path d="M72.273 137.934l1.704-10.196M51.203 155.37l9.684-3.62" stroke-width="1.2" stroke="#000" stroke-miterlimit="10" fill="none"/><path d="M60.887 151.75l9.68-3.62" stroke-width="1.2" stroke="#00f" stroke-miterlimit="10" fill="none"/><path d="M67.566 142.63h7v11h-7zm0 0" fill="#fff"/><use xlink:href="#a" x="67.566" y="151.292" fill="#00f"/><path d="M73.977 127.738L58.023 114.59M58.023 114.59l-9.68 3.62" stroke-width="1.2" stroke="#000" stroke-miterlimit="10" fill="none"/><path d="M48.344 118.21l-9.684 3.622M38.66 121.832l-1.703 10.195" stroke-width="1.2" stroke="#f00" stroke-miterlimit="10" fill="none"/><path d="M36.957 132.027l-1.707 10.196" stroke-width="1.2" stroke="#000" stroke-miterlimit="10" fill="none"/><path d="M34.66 116.332h8v11h-8zm0 0" fill="#fff"/><use xlink:href="#b" x="34.66" y="124.995" fill="#f00"/><path d="M35.25 142.223l15.953 13.148" stroke-width="1.2" stroke="#000" stroke-miterlimit="10" fill="none"/><path d="M113.46 134.8l10.317.634" stroke-width="1.2" stroke="#00f" stroke-miterlimit="10" fill="none"/><path d="M123.777 135.434l10.317.63" stroke-width="1.2" stroke="#000" stroke-miterlimit="10" fill="none"/><path d="M115.227 139.78l8.253.51" stroke-width="1.2" stroke="#00f" stroke-miterlimit="10" fill="none"/><path d="M123.48 140.29l8.254.503" stroke-width="1.2" stroke="#000" stroke-miterlimit="10" fill="none"/><path d="M110.46 129.3h7v11h-7zm0 0" fill="#fff"/><use xlink:href="#a" x="110.461" y="137.964" fill="#00f"/><path d="M134.094 136.063l13.148-15.954M147.242 120.11l20.39 3.41M150.086 115.652l16.312 2.73M140.004 100.746l7.238 19.363M167.633 123.52l13.152-15.954M180.785 107.566l-7.242-19.363M175.504 107.336l-5.793-15.492M173.543 88.203l-20.39-3.41M153.152 84.793l-13.148 15.953M155.59 89.48l-10.52 12.762" stroke-width="1.2" stroke="#000" stroke-miterlimit="10" fill="none"/></g></svg>
